X:1
T:Flat River Girl
M:3/4
L:1/4
K:D
 D/2D/2| D F A| A G E| E D D| D z D| D F A| d B d| A c B| A z A/2A/2|\
 A d c| d A F| G A B| A z D| D F A| A G E/2E/2| E D D| D2||
